static/img/device/component-wall-bracket-sio2.svg

<svg xmlns="http://www.w3.org/2000/svg" width="86" height="77" fill="none" viewBox="0 0 86 77"><g clip-path="url(#a)"><path fill="#fff" fill-rule="evenodd" d="M68.87 45.14h13.19c1.46 0 2.64 1.18 2.64 2.64v25.67c0 1.46-1.18 2.65-2.64 2.65H16.33C7.59 76.1.5 69.17.5 60.62s7.09-15.48 15.83-15.48h52.53" clip-rule="evenodd"/><path stroke="#000" stroke-miterlimit="10" stroke-width=".5" d="M23.29 60.62c0 2.49-1.89 4.5-4.21 4.5h-4.72c-2.33 0-4.21-2.01-4.21-4.5 0-2.48 1.89-4.5 4.21-4.5h4.72c2.33 0 4.21 2.01 4.21 4.5Z" clip-rule="evenodd"/><path stroke="#000" stroke-miterlimit="10" d="M68.87 45.14h13.19c1.46 0 2.64 1.18 2.64 2.64v25.67c0 1.46-1.18 2.65-2.64 2.65H16.33C7.59 76.1.5 69.17.5 60.62s7.09-15.48 15.83-15.48h52.53"/><path stroke="#000" stroke-miterlimit="10" stroke-width=".5" d="M64.59 60.62c0 1.86-1.51 3.37-3.37 3.37s-3.37-1.51-3.37-3.37 1.51-3.37 3.37-3.37 3.37 1.51 3.37 3.37ZM77.49 60.62c0 1.3-1.06 2.36-2.36 2.36s-2.36-1.06-2.36-2.36 1.05-2.36 2.36-2.36 2.36 1.05 2.36 2.36Z" clip-rule="evenodd"/><path fill="#fff" fill-rule="evenodd" d="M68.87.5h13.19c1.46 0 2.64 1.18 2.64 2.64v25.67c0 1.46-1.18 2.65-2.64 2.65H16.33C7.59 31.46.5 24.53.5 15.98S7.59.5 16.33.5h52.53" clip-rule="evenodd"/><path stroke="#000" stroke-miterlimit="10" stroke-width=".5" d="M23.29 15.98c0 2.49-1.89 4.5-4.21 4.5h-4.72c-2.33 0-4.21-2.01-4.21-4.5 0-2.48 1.89-4.5 4.21-4.5h4.72c2.33 0 4.21 2.01 4.21 4.5Z" clip-rule="evenodd"/><path stroke="#000" stroke-miterlimit="10" d="M68.87.5h13.19c1.46 0 2.64 1.18 2.64 2.64v25.67c0 1.46-1.18 2.65-2.64 2.65H16.33C7.59 31.46.5 24.53.5 15.98S7.59.5 16.33.5h52.53"/><path stroke="#000" stroke-miterlimit="10" stroke-width=".5" d="M64.59 15.98c0 1.86-1.51 3.37-3.37 3.37s-3.37-1.51-3.37-3.37 1.51-3.37 3.37-3.37 3.37 1.51 3.37 3.37ZM77.49 15.98c0 1.3-1.06 2.36-2.36 2.36s-2.36-1.06-2.36-2.36 1.05-2.36 2.36-2.36 2.36 1.05 2.36 2.36Z" clip-rule="evenodd"/></g><defs><clipPath id="a"><path fill="#fff" d="M0 0h85.2v76.6H0z"/></clipPath></defs></svg>

<svg width="86" height="77" viewBox="0 0 86 77" fill="none" xmlns="http://www.w3.org/2000/svg">
<g clip-path="url(#clip0_689_222)">
<path fill-rule="evenodd" clip-rule="evenodd" d="M68.87 45.14H82.06C83.52 45.14 84.7 46.32 84.7 47.78V73.45C84.7 74.91 83.52 76.1 82.06 76.1H16.33C7.59 76.1 0.5 69.17 0.5 60.62C0.5 52.07 7.59 45.14 16.33 45.14H68.86" fill="white"/>
<path fill-rule="evenodd" clip-rule="evenodd" d="M23.29 60.62C23.29 63.11 21.4 65.12 19.08 65.12H14.36C12.03 65.12 10.15 63.11 10.15 60.62C10.15 58.14 12.04 56.12 14.36 56.12H19.08C21.41 56.12 23.29 58.13 23.29 60.62Z" stroke="black" stroke-width="0.5" stroke-miterlimit="10"/>
<path d="M68.87 45.14H82.06C83.52 45.14 84.7 46.32 84.7 47.78V73.45C84.7 74.91 83.52 76.1 82.06 76.1H16.33C7.59 76.1 0.5 69.17 0.5 60.62C0.5 52.07 7.59 45.14 16.33 45.14H68.86" stroke="black" stroke-miterlimit="10"/>
<path fill-rule="evenodd" clip-rule="evenodd" d="M64.59 60.62C64.59 62.48 63.08 63.99 61.22 63.99C59.36 63.99 57.85 62.48 57.85 60.62C57.85 58.76 59.36 57.25 61.22 57.25C63.08 57.25 64.59 58.76 64.59 60.62Z" stroke="black" stroke-width="0.5" stroke-miterlimit="10"/>
<path fill-rule="evenodd" clip-rule="evenodd" d="M77.49 60.62C77.49 61.92 76.43 62.98 75.13 62.98C73.83 62.98 72.77 61.92 72.77 60.62C72.77 59.32 73.82 58.26 75.13 58.26C76.44 58.26 77.49 59.31 77.49 60.62Z" stroke="black" stroke-width="0.5" stroke-miterlimit="10"/>
<path fill-rule="evenodd" clip-rule="evenodd" d="M68.87 0.5H82.06C83.52 0.5 84.7 1.68 84.7 3.14V28.81C84.7 30.27 83.52 31.46 82.06 31.46H16.33C7.59 31.46 0.5 24.53 0.5 15.98C0.5 7.43 7.59 0.5 16.33 0.5H68.86" fill="white"/>
<path fill-rule="evenodd" clip-rule="evenodd" d="M23.29 15.98C23.29 18.47 21.4 20.48 19.08 20.48H14.36C12.03 20.48 10.15 18.47 10.15 15.98C10.15 13.5 12.04 11.48 14.36 11.48H19.08C21.41 11.48 23.29 13.49 23.29 15.98Z" stroke="black" stroke-width="0.5" stroke-miterlimit="10"/>
<path d="M68.87 0.5H82.06C83.52 0.5 84.7 1.68 84.7 3.14V28.81C84.7 30.27 83.52 31.46 82.06 31.46H16.33C7.59 31.46 0.5 24.53 0.5 15.98C0.5 7.43 7.59 0.5 16.33 0.5H68.86" stroke="black" stroke-miterlimit="10"/>
<path fill-rule="evenodd" clip-rule="evenodd" d="M64.59 15.98C64.59 17.84 63.08 19.35 61.22 19.35C59.36 19.35 57.85 17.84 57.85 15.98C57.85 14.12 59.36 12.61 61.22 12.61C63.08 12.61 64.59 14.12 64.59 15.98Z" stroke="black" stroke-width="0.5" stroke-miterlimit="10"/>
<path fill-rule="evenodd" clip-rule="evenodd" d="M77.49 15.98C77.49 17.28 76.43 18.34 75.13 18.34C73.83 18.34 72.77 17.28 72.77 15.98C72.77 14.68 73.82 13.62 75.13 13.62C76.44 13.62 77.49 14.67 77.49 15.98Z" stroke="black" stroke-width="0.5" stroke-miterlimit="10"/>
</g>
<defs>
<clipPath id="clip0_689_222">
<rect width="85.2" height="76.6" fill="white"/>
</clipPath>
</defs>
</svg>
